!!!COM: Mozart, Wolfgang Amadeus
!!!OTL: Musikalische Würfelspiele, Kontre-Tänze
!!!SCA: K<sup>6</sup> Anh. C30.01 (K<sup>3</sup> Anh. 294d)
**kern	**kern
*staff2	*staff2
*clefF4	*clefG2
*M2/4	*M2/4
*MM110	*MM110
*>[A,A1,A,A2,B]	*>[A,A1,A,A2,B]
*>norep[A,A2,B]	*>norep[A,A2,B]
*>A	*>A
=99	=99
16C	8g
16G	.
16E	4cc
16G	.
16C	.
16G	.
16E	8ee
16G	.
=68	=68
4C	8gg
.	16gg
.	16ee
4r	8cc
.	16cc
.	16ee
=112	=112
4G	8ff
.	8dd
4GG	8b
.	8g
=158	=158
4C	16cc
.	16dd
.	16ee
.	16ff
4CC	16gg
.	16ee
.	16dd
.	16cc
=117	=117
16D	8aa
16A	.
16F#	4ff#
16A	.
16D	.
16A	.
16F#	8dd
16A	.
=67	=67
4G	8gg
.	16bb
.	16gg
4BB	8dd
.	16gg
.	16dd
=168	=168
4C	8ee
.	4cc
4D	.
.	16a
.	16f#
=115	=115
*>A1	*>A1
4GG	4g 4b 4gg
16G	4r
16F	.
16E	.
16D	.
=115:|!	=115:|!
*>A2	*>A2
4GG	4g 4b 4gg
16GG	4r
16AA	.
16BB	.
16C#	.
=148||	=148||
*>B	*>B
4D	16aa
.	16gg
.	16aa
.	16ff#
4F#	8dd
.	16ee
.	16ff#
=124	=124
4G	8b
.	8d
4GG	8gg
.	8bb
=87	=87
4C	8ee
.	16cc
.	16ee
4r	8gg
.	16ee
.	16cc
=19	=19
4GG	16dd
.	16b
.	16cc
.	16a
4r	16g
.	16gg
.	16ff
.	16dd
=128	=128
16C	8g
16G	.
16E	4cc
16G	.
16C	.
16G	.
16E	8ee
16G	.
=24	=24
4C	16ccc
.	16bb
.	16aa
.	16gg
4r	16ff
.	16ee
.	16dd
.	16cc
=154	=154
4G	8ff
.	8dd
4GG	8cc
.	8b
=146	=146
4C	4cc
4CC	4c
==	==
*-	*-
